X:1
T:The Cricket's March Across the Salt Cellar
M:12/8
L:1/8
S:L.Nugent #1 Trk 5
R:slow slide
Z:sika
K:D
A |:\
"D"DED FED F2A d2A | "G"Bcd "A7"AB/2A/2F EF/2E/2D B3 |\
"D"DED FED F2A d2A | "G"Bcd "A7"AB/2A/2F EF/2E/2D "D"D2 :|
B |:\
"D"A2F FEF "Bmin"d2B BAB | f2B BAf a2f fef |\
"G"gfe "D"fed "A7"efe "Bmin"d2A | "G"Bcd "D"A2F "A7"E2D "D"D2 :|
